src/lib/packages/icons/src/assets/line/menu-left.svg

<svg width="24" height="24" viewBox="0 0 24 24" fill="none" xmlns="http://www.w3.org/2000/svg">
<path d="M21 6.75H3C2.586 6.75 2.25 6.414 2.25 6C2.25 5.586 2.586 5.25 3 5.25H21C21.414 5.25 21.75 5.586 21.75 6C21.75 6.414 21.414 6.75 21 6.75ZM21.75 12C21.75 11.586 21.414 11.25 21 11.25H3C2.586 11.25 2.25 11.586 2.25 12C2.25 12.414 2.586 12.75 3 12.75H21C21.414 12.75 21.75 12.414 21.75 12ZM12.75 18C12.75 17.586 12.414 17.25 12 17.25H3C2.586 17.25 2.25 17.586 2.25 18C2.25 18.414 2.586 18.75 3 18.75H12C12.414 18.75 12.75 18.414 12.75 18Z" fill="currentColor"/>
</svg>

<svg xmlns="http://www.w3.org/2000/svg" width="24" height="24" fill="none"><path fill="currentColor" d="M21 6.75H3a.75.75 0 0 1 0-1.5h18a.75.75 0 0 1 0 1.5Zm.75 5.25a.75.75 0 0 0-.75-.75H3a.75.75 0 0 0 0 1.5h18a.75.75 0 0 0 .75-.75Zm-9 6a.75.75 0 0 0-.75-.75H3a.75.75 0 0 0 0 1.5h9a.75.75 0 0 0 .75-.75Z"/></svg>
